assets/svg/role.svg

<?xml version="1.0" encoding="UTF-8" standalone="no" ?>
<!DOCTYPE svg PUBLIC "-//W3C//DTD SVG 1.1//EN" "http://www.w3.org/Graphics/SVG/1.1/DTD/svg11.dtd">
<svg xmlns="http://www.w3.org/2000/svg" xmlns:xlink="http://www.w3.org/1999/xlink" version="1.1" width="1080" height="1080" viewBox="0 0 1080 1080" xml:space="preserve">
<desc>Created with Fabric.js 5.2.4</desc>
<defs>
</defs>
<g transform="matrix(1 0 0 1 540 540)" id="04ea1a3c-438c-4d99-a06d-60310ff53c35"  >
<rect style="stroke: none; stroke-width: 1; stroke-dasharray: none; stroke-linecap: butt; stroke-dashoffset: 0; stroke-linejoin: miter; stroke-miterlimit: 4; fill: rgb(255,255,255); fill-rule: nonzero; opacity: 1; visibility: hidden;" vector-effect="non-scaling-stroke"  x="-540" y="-540" rx="0" ry="0" width="1080" height="1080" />
</g>
<g transform="matrix(1 0 0 1 540 540)" id="931d40a3-4629-4011-8c0c-e63654290e94"  >
</g>
<g transform="matrix(10.8 0 0 10.8 540 540)"  >
<g style=""   >
		<g transform="matrix(1 0 0 1 0 0.01)"  >
<path style="stroke: none; stroke-width: 1; stroke-dasharray: none; stroke-linecap: butt; stroke-dashoffset: 0; stroke-linejoin: miter; stroke-miterlimit: 4; fill: rgb(0,0,0); fill-rule: nonzero; opacity: 1;" vector-effect="non-scaling-stroke"  transform=" translate(-50, -50.01)" d="M 85.92 63.89 L 55 90 L 55 67.48 L 62.42 67.48 L 62.42 58.38 L 37.55 58.38 L 37.55 67.48 L 45 67.48 L 45 90.23 L 14.08 63.89 L 8.33 21 L 35.87 10.49 C 44.96109911356567 6.969632774717173 55.038900886434334 6.969632774717175 64.13000000000001 10.490000000000007 L 91.67 21 Z M 66.28 5 C 55.76395203520171 1.1734242288087144 44.236047964798246 1.1734242288087153 33.71999999999996 5.000000000000014 L 2.11 17.19 L 8.81 66.76 L 41.86 95 C 44.16462677522713 96.86295661202293 47.03658014471116 97.88260590413704 49.99999999999999 97.89 C 52.97054576802785 97.92454804397948 55.85629086012953 96.90000218204166 58.14 95 L 91.19 66.76 L 97.89 17.190000000000005 Z" stroke-linecap="round" />
</g>
		<g transform="matrix(1 0 0 1 -0.06 -11.73)"  >
<path style="stroke: none; stroke-width: 1; stroke-dasharray: none; stroke-linecap: butt; stroke-dashoffset: 0; stroke-linejoin: miter; stroke-miterlimit: 4; fill: rgb(0,0,0); fill-rule: nonzero; opacity: 1;" vector-effect="non-scaling-stroke"  transform=" translate(-49.94, -38.27)" d="M 78.74 32.28 L 62 21.26 L 62 26.53 L 38 26.53 L 38 21.26 L 21.74 28.45 C 20.543840543105873 28.989463265525078 19.858958827591813 30.264901669865637 20.07 31.56 L 24.38 50.72 C 24.69186971246407 51.75121050804576 25.49878949195424 52.55813028753593 26.529999999999998 52.87 L 37.79 55.269999999999996 L 37.79 50 L 61.73 50 L 61.73 55.269999999999996 L 73.22999999999999 52.87 C 74.3469961670344 52.715114687841066 75.22511468784106 51.836996167034414 75.38 50.72 L 79.69 35.15 C 80.08618850394707 34.07729312417025 79.66700679356465 32.8742416153727 78.69 32.28" stroke-linecap="round" />
</g>
		<g transform="matrix(1 0 0 1 0 -34.13)"  >
<path style="stroke: none; stroke-width: 1; stroke-dasharray: none; stroke-linecap: butt; stroke-dashoffset: 0; stroke-linejoin: miter; stroke-miterlimit: 4; fill: rgb(0,0,0); fill-rule: nonzero; opacity: 1;" vector-effect="non-scaling-stroke"  transform=" translate(-50, -15.88)" d="M 57.42 20.07 L 42.58 20.07 L 50 11.68 Z" stroke-linecap="round" />
</g>
</g>
</g>
</svg>

<svg data-testid="overview:roleicon" class="style__StyledSpecsIcon-sc-8gkpub-17-i kUmjKh" viewBox="0 0 100 100">
<path d="M85.92,63.89,55,90V67.48h7.42v-9.1H37.55v9.1H45V90.23L14.08,63.89,8.33,21,35.87,10.49a39.13,39.13,0,0,1,28.26,0L91.67,21ZM66.28,5A47.61,47.61,0,0,0,33.72,5L2.11,17.19l6.7,49.57L41.86,95A13,13,0,0,0,50,97.89,12.5,12.5,0,0,0,58.14,95L91.19,66.76l6.7-49.57Z"></path>
<path d="M78.74,32.28,62,21.26v5.27H38V21.26L21.74,28.45a2.9,2.9,0,0,0-1.67,3.11l4.31,19.16a3.22,3.22,0,0,0,2.15,2.15l11.26,2.4V50H61.73v5.27l11.5-2.4a2.52,2.52,0,0,0,2.15-2.15l4.31-15.57a2.39,2.39,0,0,0-1-2.87"></path>
<path d="M57.42,20.07H42.58L50,11.68Z"></path>
</svg>
